build/documents/PPTOutline.svg

<svg xmlns="http://www.w3.org/2000/svg" fill="none" viewBox="0 0 24 24" focusable="false"><path d="M0 0H24V24H0z"/><path fill="#74767B" fill-rule="evenodd" d="M17.65 3.35004C19.3069 3.35004 20.65 4.69318 20.65 6.35004L20.65 16.35C20.65 18.0069 19.3069 19.35 17.65 19.35L9.65 19.35C7.99314 19.35 6.65 18.0069 6.65 16.35L6.65 6.35004C6.65 4.69318 7.99314 3.35004 9.65 3.35004L17.65 3.35004ZM9.65 4.65004L17.65 4.65004C18.5889 4.65004 19.35 5.41115 19.35 6.35004L19.35 16.35C19.35 17.2889 18.5889 18.05 17.65 18.05L9.65 18.05C8.71112 18.05 7.95 17.2889 7.95 16.35L7.95 6.35004C7.95 5.41115 8.71112 4.65004 9.65 4.65004ZM11.8681 8.65594C11.99 8.53404 12.1553 8.46556 12.3277 8.46556L13.8919 8.46556C15.0878 8.46556 16.0572 9.43501 16.0572 10.6309C16.0572 11.8267 15.0878 12.7962 13.8919 12.7962L12.9777 12.7962L12.9777 13.5812C12.9777 13.9402 12.6867 14.2312 12.3277 14.2312C11.9688 14.2312 11.6777 13.9402 11.6777 13.5812L11.6777 9.11556C11.6777 8.94317 11.7462 8.77784 11.8681 8.65594ZM4.65 8.70004C4.29101 8.70004 4 8.99105 4 9.35004L4 18.75C4 20.545 5.45507 22 7.25 22L15.65 22C16.009 22 16.3 21.709 16.3 21.35C16.3 20.9911 16.009 20.7 15.65 20.7L7.25 20.7C6.17304 20.7 5.3 19.827 5.3 18.75L5.3 9.35004C5.3 8.99105 5.00898 8.70004 4.65 8.70004ZM12.9777 11.4962L13.8919 11.4962C14.3698 11.4962 14.7572 11.1088 14.7572 10.6309C14.7572 10.153 14.3698 9.76556 13.8919 9.76556L12.9777 9.76556L12.9777 11.4962Z"/></svg>

<svg xmlns="http://www.w3.org/2000/svg" fill="none" viewBox="0 0 24 24" focusable="false"><path fill="#74767B" fill-rule="evenodd" d="M17.64 3.35c1.66 0 3 1.34 3 3v10c0 1.65-1.34 3-3 3h-8c-1.65 0-3-1.35-3-3v-10c0-1.66 1.35-3 3-3zm-8 1.3h8c.94 0 1.71.76 1.71 1.7v10c0 .93-.77 1.69-1.71 1.69h-8c-.93 0-1.7-.76-1.7-1.69v-10c0-.94.77-1.7 1.7-1.7m2.68 3.81c-.17 0-.33.07-.46.19a.66.66 0 0 0-.19.46v4.47c0 .36.29.65.65.65s.65-.29.65-.65v-.79h.92a2.166 2.166 0 0 0 0-4.33zm-7.68.24c-.35 0-.64.29-.64.65v9.4A3.25 3.25 0 0 0 7.25 22h8.39c.36 0 .65-.3.65-.65 0-.36-.29-.65-.65-.65H7.25c-1.08 0-1.95-.88-1.95-1.95v-9.4c0-.36-.3-.65-.66-.65m9.25 2.79h-.92V9.76h.92c.47 0 .86.39.86.87 0 .47-.39.86-.86.86"/></svg>
